static/app-icons/dark-theme/WatsonAdverseImpactAnalysis.svg

<svg xmlns="http://www.w3.org/2000/svg" viewBox="0 0 32 32"><defs><linearGradient id="linear-gradient" x1="-1688.5" y1="-1667.5" x2="-1688.5" y2="-1660.5" gradientTransform="matrix(1 0 0 -1 1707 -1646)" gradientUnits="userSpaceOnUse"><stop offset=".001" stop-opacity="0"/><stop offset=".83"/></linearGradient><linearGradient id="linear-gradient-2" x1="-798" y1="32" x2="-830" gradientTransform="matrix(1 0 0 -1 830 32)" gradientUnits="userSpaceOnUse"><stop offset=".1" stop-color="#be95ff"/><stop offset=".9" stop-color="#4589ff"/></linearGradient><style>.cls-1{fill:#fff}.cls-5{fill:#f4f4f4}</style><mask id="mask" x="0" y="0" width="32" height="32" maskUnits="userSpaceOnUse"><path class="cls-1" d="M23 7.172L25.828 10 23 12.828 20.172 10 23 7.172m0-2.829L17.343 10 23 15.657 28.657 10 23 4.343zM30 26h-2v-4a3 3 0 00-3-3h-9v-2h9a5.006 5.006 0 015 5z"/><path transform="rotate(-90 18.5 18)" fill="url(#linear-gradient)" d="M16.5 14.5h4v7h-4z"/></mask></defs><g id="Layer_2" data-name="Layer 2"><g id="Dark_theme_icons" data-name="Dark theme icons"><g mask="url(#mask)"><path id="Color" transform="rotate(180 16 16)" fill="url(#linear-gradient-2)" d="M0 0h32v32H0z"/></g><path class="cls-5" d="M16 26h-2v-4a3 3 0 00-3-3H7a3 3 0 00-3 3v4H2v-4a5.006 5.006 0 015-5h4a5.006 5.006 0 015 5zM9 7a3 3 0 11-3 3 3 3 0 013-3m0-2a5 5 0 105 5 5 5 0 00-5-5z"/></g></g></svg>

<svg xmlns="http://www.w3.org/2000/svg" xmlns:xlink="http://www.w3.org/1999/xlink" viewBox="0 0 32 32"><defs><style>.cls-1{fill:#fff;}.cls-2{fill:url(#linear-gradient);}.cls-3{mask:url(#mask);}.cls-4{fill:url(#linear-gradient-2);}.cls-5{fill:#f4f4f4;}</style><linearGradient id="linear-gradient" x1="-1688.5" y1="-1667.5" x2="-1688.5" y2="-1660.5" gradientTransform="matrix(1, 0, 0, -1, 1707, -1646)" gradientUnits="userSpaceOnUse"><stop offset="0.001" stop-opacity="0"/><stop offset="0.83"/></linearGradient><mask id="mask" x="0" y="0" width="32" height="32" maskUnits="userSpaceOnUse"><path class="cls-1" d="M23,7.172,25.828,10,23,12.828,20.172,10,23,7.172m0-2.829L17.343,10,23,15.657,28.657,10,23,4.343Z"/><path class="cls-1" d="M30,26H28V22a3,3,0,0,0-3-3H16V17h9a5.006,5.006,0,0,1,5,5Z"/><rect class="cls-2" x="16.5" y="14.5" width="4" height="7" transform="translate(0.5 36.5) rotate(-90)"/></mask><linearGradient id="linear-gradient-2" x1="-798" y1="32" x2="-830" gradientTransform="matrix(1, 0, 0, -1, 830, 32)" gradientUnits="userSpaceOnUse"><stop offset="0.1" stop-color="#be95ff"/><stop offset="0.9" stop-color="#4589ff"/></linearGradient></defs><g id="Layer_2" data-name="Layer 2"><g id="Dark_theme_icons" data-name="Dark theme icons"><g class="cls-3"><rect id="Color" class="cls-4" width="32" height="32" transform="translate(32 32) rotate(180)"/></g><path class="cls-5" d="M16,26H14V22a3,3,0,0,0-3-3H7a3,3,0,0,0-3,3v4H2V22a5.006,5.006,0,0,1,5-5h4a5.006,5.006,0,0,1,5,5Z"/><path class="cls-5" d="M9,7a3,3,0,1,1-3,3A3,3,0,0,1,9,7M9,5a5,5,0,1,0,5,5A5,5,0,0,0,9,5Z"/></g></g></svg>
